src/images/svg/payment-methods/payment-bitcoin.svg

<svg width="128" height="80" viewBox="0 0 128 80" fill="none" xmlns="http://www.w3.org/2000/svg">
<path d="M86.8254 36.39C87.4953 36.39 88.0952 36.4541 88.6213 36.5848C89.1511 36.7155 89.6313 36.8847 90.0644 37.0974L88.9244 39.7438C88.6264 39.6208 88.3169 39.5131 87.9972 39.4132C87.6775 39.3132 87.2864 39.2645 86.8254 39.2645C85.7211 39.2645 84.8486 39.6528 84.199 40.4269C83.552 41.2022 83.2272 42.2441 83.2272 43.5526C83.2272 44.3279 83.3902 44.9546 83.7188 45.4339C84.0461 45.9132 84.6512 46.1515 85.5275 46.1515C85.9605 46.1515 86.3796 46.1054 86.7795 46.0157C87.182 45.9247 87.5386 45.8106 87.852 45.6735L88.0991 48.3865C87.6813 48.5531 87.2202 48.7018 86.7146 48.8338C86.2076 48.9594 85.6039 49.026 84.9033 49.026C83.9799 49.026 83.1979 48.8876 82.5585 48.6159C81.9178 48.3391 81.3892 47.9726 80.9727 47.5087C80.5549 47.0435 80.2543 46.5014 80.0684 45.8773C79.8824 45.2544 79.7882 44.5996 79.7882 43.9165C79.7882 42.8836 79.9512 41.9096 80.2785 40.9972C80.6046 40.0847 81.0759 39.2863 81.6873 38.6007C82.2961 37.9202 83.0374 37.3794 83.9099 36.9834C84.7798 36.5886 85.7516 36.39 86.8241 36.39H86.8254ZM59.6828 31.0088L58.2995 36.8911C58.595 36.7552 58.8944 36.6502 59.1911 36.5733C59.4905 36.4964 59.8101 36.4579 60.1515 36.4579C60.8673 36.4579 61.4863 36.5886 62.006 36.8462C62.5282 37.1051 62.9587 37.455 63.3052 37.8958C63.6453 38.3379 63.8987 38.8544 64.063 39.4465C64.2261 40.0398 64.3076 40.678 64.3076 41.3624C64.3076 42.412 64.1191 43.4039 63.7382 44.3381C63.3587 45.2737 62.8428 46.0862 62.1856 46.7795C61.5296 47.4715 60.7552 48.0162 59.8624 48.4199C58.9708 48.8223 58.0015 49.0248 56.9596 49.0248C56.8259 49.0248 56.589 49.0209 56.254 49.0132C55.9203 49.0068 55.5356 48.9709 55.1051 48.9107C54.672 48.8505 54.2135 48.7595 53.7308 48.6364C53.2468 48.5173 52.7882 48.3481 52.3564 48.1354L56.2221 31.556L59.6828 31.0088ZM96.438 36.39C97.2124 36.39 97.8938 36.513 98.4836 36.7552C99.0695 36.9987 99.5535 37.3422 99.9356 37.7818C100.314 38.2239 100.6 38.7429 100.794 39.3452C100.989 39.9437 101.084 40.6101 101.084 41.3393C101.084 42.2492 100.943 43.163 100.662 44.0767C100.38 44.9866 99.9611 45.8081 99.4095 46.5398C98.8593 47.269 98.1715 47.865 97.3436 48.3289C96.5182 48.7915 95.5604 49.0248 94.4727 49.0248C93.683 49.0248 92.999 48.9017 92.4169 48.6595C91.8374 48.416 91.3572 48.0751 90.9776 47.633C90.5968 47.1934 90.3128 46.6718 90.1179 46.0708C89.9217 45.471 89.8288 44.8059 89.8288 44.078C89.8288 43.1642 89.9727 42.2505 90.2618 41.3393C90.5522 40.4269 90.9802 39.6067 91.5483 38.8775C92.1112 38.147 92.8067 37.5498 93.6244 37.0846C94.4421 36.6232 95.3821 36.39 96.438 36.39ZM77.0726 33.1759L76.2231 36.7104H79.9321L79.2621 39.4913H75.576L74.594 43.6884C74.5036 44.0383 74.4514 44.3651 74.4373 44.6675C74.4208 44.9725 74.459 45.2352 74.5482 45.4556C74.6373 45.6761 74.7965 45.8465 75.0283 45.9683C75.2589 46.09 75.5888 46.1515 76.0218 46.1515C76.3785 46.1515 76.7262 46.1169 77.0624 46.049C77.3962 45.9811 77.735 45.8862 78.0776 45.7632L78.3247 48.3648C77.8776 48.5314 77.3936 48.6749 76.8727 48.7966C76.3504 48.9197 75.7314 48.9786 75.0169 48.9786C73.9903 48.9786 73.1942 48.8223 72.6261 48.5121C72.0606 48.2007 71.6594 47.774 71.4199 47.2331C71.183 46.6949 71.0773 46.0746 71.1079 45.3762C71.1385 44.6752 71.2416 43.9396 71.4199 43.1642L73.6107 33.7231L77.0726 33.1759ZM70.713 36.7104L67.8982 48.7056H64.5916L67.3836 36.7104H70.713ZM107.503 36.7104L104.688 48.7056H101.379L104.172 36.7104H107.503ZM114.618 36.4361C116.361 36.4361 117.564 36.9539 118.227 37.9868C118.89 39.021 119.004 40.4358 118.575 42.2287L117.054 48.7056H113.726L115.2 42.3658C115.289 41.9686 115.36 41.5867 115.412 41.2125C115.465 40.8421 115.462 40.5153 115.4 40.2334C115.341 39.954 115.203 39.7246 114.988 39.5477C114.77 39.3734 114.44 39.2863 113.993 39.2863C113.562 39.2863 113.123 39.3337 112.676 39.4247L110.509 48.7056H107.179L109.883 37.2576C110.134 37.182 110.414 37.0923 110.72 36.9949C111.026 36.8962 111.367 36.8052 111.749 36.7232C112.126 36.6386 112.552 36.5694 113.022 36.5169C113.49 36.4618 114.024 36.4361 114.618 36.4361ZM59.3261 39.2863C59.1173 39.2863 58.8472 39.3273 58.5122 39.4003C58.176 39.4772 57.8754 39.6374 57.6066 39.8796L56.133 46.1272L56.3673 46.1733C56.4323 46.1887 56.5049 46.1989 56.5775 46.2079C56.6539 46.2156 56.7418 46.2207 56.8475 46.2207H57.2487C57.771 46.2207 58.2613 46.09 58.7224 45.8324C59.1848 45.5761 59.5847 45.2275 59.9197 44.7944C60.2534 44.3599 60.5183 43.8717 60.7119 43.3232C60.9043 42.7759 61.0023 42.2056 61.0023 41.6123C61.0023 40.8818 60.8826 40.3128 60.6457 39.9014C60.4075 39.4913 59.9668 39.2863 59.3274 39.2863H59.3261ZM96.1259 39.2645C95.6356 39.2645 95.2025 39.4093 94.8319 39.6964C94.4587 39.9873 94.1466 40.3513 93.8944 40.7921C93.6397 41.2342 93.4499 41.7161 93.3212 42.2402C93.1964 42.7657 93.134 43.2616 93.134 43.7332C93.134 44.4945 93.2537 45.0878 93.4906 45.5146C93.7301 45.9375 94.1606 46.1515 94.786 46.1515C95.2789 46.1515 95.7094 46.008 96.0826 45.7171C96.452 45.43 96.7653 45.0635 97.0201 44.6226C97.2735 44.1831 97.4633 43.6999 97.592 43.1745C97.7168 42.6516 97.7805 42.1518 97.7805 41.6815C97.7805 40.9228 97.6608 40.3282 97.4213 39.9027C97.1831 39.4772 96.7513 39.2645 96.1259 39.2645ZM69.9998 31.2356C70.4608 31.2356 70.8773 31.3766 71.2493 31.6573C71.6212 31.9392 71.8084 32.3698 71.8084 32.9452C71.8084 33.2656 71.7447 33.5655 71.6174 33.8474C71.4913 34.1294 71.3244 34.3716 71.1155 34.5779C70.9092 34.7829 70.6646 34.9444 70.3895 35.0674C70.1131 35.1905 69.8202 35.2481 69.5081 35.2481C69.047 35.2481 68.6293 35.1072 68.2573 34.8265C67.8829 34.5471 67.6969 34.1178 67.6969 33.5386C67.6969 33.2182 67.7606 32.9209 67.888 32.6376C68.0153 32.3557 68.1809 32.1148 68.3911 31.9072C68.6 31.7034 68.8407 31.5406 69.1171 31.4176C69.3922 31.2959 69.6864 31.2356 69.9998 31.2356ZM106.787 31.2356C107.249 31.2356 107.667 31.3766 108.039 31.6573C108.411 31.9392 108.599 32.3698 108.599 32.9452C108.599 33.2656 108.532 33.5655 108.407 33.8474C108.282 34.1294 108.114 34.3716 107.906 34.5779C107.696 34.7829 107.456 34.9444 107.18 35.0674C106.904 35.1905 106.61 35.2481 106.296 35.2481C105.835 35.2481 105.418 35.1072 105.046 34.8265C104.674 34.5471 104.487 34.1178 104.487 33.5386C104.487 33.2182 104.55 32.9209 104.678 32.6376C104.802 32.3557 104.971 32.1148 105.179 31.9072C105.388 31.7034 105.632 31.5406 105.905 31.4176C106.181 31.2959 106.475 31.2356 106.787 31.2356Z" fill="#4D4D4D"/>
<circle cx="28" cy="40" r="18" fill="#F7931B"/>
<path fill-rule="evenodd" clip-rule="evenodd" d="M26.4035 31.5244L27.1981 28.2778L29.1336 28.7698L28.3543 31.9523C28.8761 32.0752 29.3988 32.1984 29.9078 32.3264L30.6795 29.1644L32.615 29.6564L31.823 32.9055C34.2678 33.7639 36.0556 35.0528 35.7016 37.4512C35.4495 39.2039 34.497 40.0546 33.2313 40.3519C34.9682 41.2769 35.8519 42.6914 35.0115 45.1487C33.9648 48.1954 31.4817 48.4542 28.1812 47.8136L27.3789 51.0935L25.4434 50.6015L26.2329 47.3678C25.7338 47.2396 25.2193 47.1038 24.6896 46.9578L23.8976 50.2069L21.9621 49.7149L22.7643 46.4299C21.4653 46.0921 20.166 45.7563 18.8652 45.4255L19.8253 43.1628C19.8253 43.1628 21.2515 43.5472 21.2337 43.5216C21.7812 43.66 22.0232 43.2935 22.1199 43.0501C22.8456 40.0858 23.5694 37.121 24.2923 34.156C24.3178 33.7358 24.1752 33.2053 23.3908 33.0055C23.4213 32.9824 21.985 32.6493 21.985 32.6493L22.4994 30.5379C23.7995 30.8687 25.0965 31.2215 26.4035 31.5244ZM26.8503 40.3364C26.6713 40.2955 26.5131 40.2593 26.3832 40.2263L25.3212 44.5773C25.4289 44.6047 25.5551 44.6387 25.6964 44.6769C27.2747 45.103 30.7312 46.0361 31.2805 43.7829C31.8428 41.4785 28.4819 40.7097 26.8503 40.3364ZM28.2313 34.3816C28.079 34.3473 27.9446 34.3171 27.8348 34.2892L26.8696 38.2353C26.9618 38.2587 27.0702 38.2882 27.1917 38.3212C28.5106 38.6797 31.3777 39.4589 31.879 37.4154C32.3898 35.318 29.5937 34.6884 28.2313 34.3816Z" fill="white"/>
</svg>

<svg width="128" height="80" fill="none" xmlns="http://www.w3.org/2000/svg"><path d="M86.825 36.39c.67 0 1.27.064 1.796.194.53.131 1.01.3 1.444.513l-1.14 2.647a11.14 11.14 0 0 0-.928-.331c-.32-.1-.71-.149-1.172-.149-1.104 0-1.976.389-2.626 1.163-.647.775-.972 1.817-.972 3.125 0 .776.163 1.402.492 1.882.327.479.932.717 1.809.717a5.946 5.946 0 0 0 2.325-.478l.246 2.713a11.76 11.76 0 0 1-1.384.448c-.507.125-1.111.192-1.812.192-.923 0-1.705-.139-2.345-.41-.64-.277-1.169-.644-1.585-1.108a4.197 4.197 0 0 1-.905-1.631 6.826 6.826 0 0 1-.28-1.96c0-1.034.163-2.008.49-2.92a7.203 7.203 0 0 1 1.41-2.397 6.61 6.61 0 0 1 2.222-1.617c.87-.395 1.842-.593 2.914-.593h.001zm-27.142-5.381L58.3 36.89a5.35 5.35 0 0 1 .891-.318c.3-.077.62-.115.96-.115.716 0 1.335.13 1.855.388.522.259.953.609 1.3 1.05.34.442.593.958.757 1.55.163.594.245 1.232.245 1.916 0 1.05-.189 2.042-.57 2.976a7.727 7.727 0 0 1-1.552 2.441 7.313 7.313 0 0 1-2.324 1.64 6.98 6.98 0 0 1-2.902.606c-.134 0-.371-.004-.706-.012a9.803 9.803 0 0 1-1.149-.103 12.62 12.62 0 0 1-1.374-.274 6.76 6.76 0 0 1-1.375-.5l3.866-16.58 3.46-.547zm36.755 5.38c.775 0 1.456.124 2.046.366.586.243 1.07.587 1.452 1.026.378.443.665.962.858 1.564.195.599.291 1.265.291 1.994a9.28 9.28 0 0 1-.423 2.738 7.99 7.99 0 0 1-1.252 2.463 6.582 6.582 0 0 1-2.066 1.789c-.826.462-1.783.696-2.871.696-.79 0-1.474-.123-2.056-.366a3.8 3.8 0 0 1-1.44-1.026 4.445 4.445 0 0 1-.86-1.563c-.195-.6-.288-1.264-.288-1.992 0-.914.144-1.828.433-2.739a7.831 7.831 0 0 1 1.286-2.462 6.901 6.901 0 0 1 2.076-1.793c.818-.461 1.758-.694 2.814-.694zm-19.365-3.213-.85 3.534h3.71l-.67 2.781h-3.687l-.982 4.197c-.09.35-.143.677-.157.98-.016.304.022.567.111.787.09.22.249.391.48.513.23.122.56.183.994.183.356 0 .704-.034 1.04-.102a7.344 7.344 0 0 0 1.016-.286l.247 2.602c-.447.166-.931.31-1.452.431-.523.123-1.142.182-1.856.182-1.027 0-1.823-.156-2.39-.466-.566-.312-.968-.738-1.207-1.28-.237-.537-.343-1.158-.312-1.856.03-.701.134-1.437.312-2.212l2.19-9.441 3.463-.547zm-6.36 3.534-2.815 11.995h-3.306l2.792-11.995h3.33zm36.79 0-2.815 11.995h-3.309l2.793-11.995h3.331zm7.115-.274c1.743 0 2.946.518 3.609 1.55.663 1.035.777 2.45.348 4.242l-1.521 6.477h-3.328l1.474-6.34c.089-.397.16-.779.212-1.153.053-.37.05-.697-.012-.979a1.178 1.178 0 0 0-.412-.685c-.218-.175-.547-.262-.995-.262-.431 0-.869.047-1.317.139l-2.167 9.28h-3.33l2.704-11.448c.251-.075.531-.165.837-.262a11.908 11.908 0 0 1 2.302-.478 13.83 13.83 0 0 1 1.596-.081zm-55.292 2.85c-.209 0-.479.041-.814.114a2.003 2.003 0 0 0-.905.48l-1.474 6.247.234.046a2.03 2.03 0 0 0 .48.047h.402c.522 0 1.012-.13 1.473-.388a3.895 3.895 0 0 0 1.198-1.038c.334-.434.598-.923.792-1.471.192-.547.29-1.118.29-1.711 0-.73-.12-1.3-.356-1.71-.238-.41-.68-.616-1.319-.616zm36.8-.022c-.49 0-.923.145-1.294.432a3.694 3.694 0 0 0-.938 1.096 5.51 5.51 0 0 0-.573 1.448 6.457 6.457 0 0 0-.187 1.493c0 .761.12 1.355.357 1.781.24.423.67.637 1.295.637.493 0 .924-.143 1.297-.434.37-.287.682-.654.937-1.095.254-.44.443-.922.572-1.448a6.448 6.448 0 0 0 .189-1.493c0-.758-.12-1.353-.36-1.778-.238-.426-.67-.639-1.295-.639zM70 31.235c.46 0 .877.141 1.25.422.371.282.558.713.558 1.288 0 .32-.063.62-.19.902a2.377 2.377 0 0 1-.502.73 2.42 2.42 0 0 1-.726.49c-.277.123-.57.18-.882.18-.46 0-.879-.14-1.25-.42-.375-.28-.561-.71-.561-1.289 0-.32.064-.617.191-.9.127-.283.293-.523.503-.731a2.46 2.46 0 0 1 .726-.49c.275-.121.57-.182.883-.182zm36.787 0c.462 0 .88.141 1.252.422.372.282.56.713.56 1.288 0 .32-.067.62-.192.902a2.372 2.372 0 0 1-.501.73c-.21.206-.45.367-.726.49a2.14 2.14 0 0 1-.883.18c-.462 0-.879-.14-1.251-.42-.372-.28-.559-.71-.559-1.289 0-.32.063-.617.191-.9a2.37 2.37 0 0 1 .501-.731c.209-.204.453-.367.726-.49a2.16 2.16 0 0 1 .882-.182z" fill="#4D4D4D"/><circle cx="28" cy="40" r="18" fill="#F7931B"/><path fill-rule="evenodd" clip-rule="evenodd" d="m26.403 31.524.795-3.246 1.935.492-.78 3.182c.523.123 1.045.246 1.554.374l.772-3.162 1.936.492-.793 3.25c2.445.858 4.233 2.147 3.88 4.545-.253 1.753-1.206 2.604-2.471 2.9 1.737.926 2.62 2.34 1.78 4.798-1.047 3.046-3.53 3.305-6.83 2.665l-.803 3.28-1.935-.492.79-3.234c-.5-.128-1.014-.264-1.544-.41l-.792 3.249-1.935-.492.802-3.285a745.097 745.097 0 0 0-3.9-1.005l.96-2.262s1.427.384 1.41.359c.547.138.789-.228.885-.472.726-2.964 1.45-5.929 2.173-8.894.025-.42-.117-.95-.902-1.15.03-.024-1.405-.357-1.405-.357l.514-2.111c1.3.33 2.597.683 3.904.986zm.447 8.812c-.18-.04-.337-.077-.467-.11l-1.062 4.351.375.1c1.578.426 5.035 1.36 5.584-.894.562-2.305-2.799-3.073-4.43-3.447zm1.38-5.954c-.152-.035-.286-.065-.396-.093l-.965 3.946.322.086c1.32.359 4.186 1.138 4.688-.906.51-2.097-2.286-2.727-3.648-3.033z" fill="#fff"/></svg>
